X:1
T:Title
L:1/8
Q:1/4=120
M:9/8
K:Db
V:1 treble nm="Grand Piano"
V:1
 B,2 C D2 E F2 G | F8- F | E2 F G2 A B2 c | B8- B | B2 B c2 B A2 G | F8- F | E2 D C2 C D2 C | %7
w: ????~?????? * * * * *|||||||
 B,8- B, | B2 =A B2 c e2 d | c8- c | e2 d c2 B A2 G | F8- F |[M:12/8] D2 B, F3- F6 | D2 B, F3- F6 | %14
w: |||||||
 E2 D C6- C2 C | D2 G F3- F6 | d2 c B3- B6 | A2 G F3- F6 | E2 D C6- C2 C | D2 C B,3- B,6 |] %20
w: ||||||

